SERVER/dist/web/static/SVG/edit.svg

<svg width="24" height="24" viewBox="0 0 24 24" fill="none" xmlns="http://www.w3.org/2000/svg">
<path d="M21.731 2.26893C21.2387 1.77675 20.5711 1.50024 19.875 1.50024C19.1789 1.50024 18.5113 1.77675 18.019 2.26893L16.862 3.42593L20.574 7.13793L21.731 5.98093C22.2232 5.48866 22.4997 4.82105 22.4997 4.12493C22.4997 3.42882 22.2232 2.7612 21.731 2.26893ZM19.513 8.19893L15.801 4.48693L3.65101 16.6369C3.03386 17.2538 2.58019 18.0147 2.33101 18.8509L1.53101 21.5359C1.49239 21.6655 1.48951 21.8031 1.52267 21.9342C1.55584 22.0652 1.62382 22.1849 1.71943 22.2805C1.81503 22.3761 1.9347 22.4441 2.06577 22.4773C2.19684 22.5104 2.33444 22.5076 2.46401 22.4689L5.14901 21.6689C5.98524 21.4198 6.74617 20.9661 7.36301 20.3489L19.513 8.19893Z" fill="#5A5D6C"/>
</svg>

<svg xmlns="http://www.w3.org/2000/svg" viewBox="0 0 24 24" fill="currentColor" class="w-6 h-6">
  <path
    d="M21.731 2.269a2.625 2.625 0 00-3.712 0l-1.157 1.157 3.712 3.712 1.157-1.157a2.625 2.625 0 000-3.712zM19.513 8.199l-3.712-3.712-12.15 12.15a5.25 5.25 0 00-1.32 2.214l-.8 2.685a.75.75 0 00.933.933l2.685-.8a5.25 5.25 0 002.214-1.32L19.513 8.2z" />
</svg>
